X:1
T:Beatus vir - Gabrieli
T:#
%%score [ 1 2 3 4 ]
L:1/8
Q:1/4=200
M:none
K:C
V:1 treble nm="Soprano" snm="S"
V:2 treble nm="Alto" snm="A"
V:3 treble-8 nm="Tenor" snm="T"
V:4 bass nm="Bass" snm="B"
V:1
"^Beatus vir""^Andrea Gabrieli\n(c. 1510-1586)" z8 G8- | G8 c8 | c8 B8 | z8 G8- | G8 c8 | %5
w: Be\-|* a-|tus vir,|be\-|* a-|
 c8 B4 B4 |[M:4/2] B8 G4 d4 | (e6 d2 c4) B4 | A8 G4 d4 | d8 B4 c4 | A4 G4 (G2 ^FE F4) | G16 | %12
w: tus vir, qui|suf- fert ten-|ta\- * * ti-|o- nem, qui|suf- fert ten-|ta- ti- o\- * * *|nem:|
 z4 G8 G4 | G4 c8 c4 | c4 B4 c4 d4 | e4 A8 A4 | A8 z8 | c12 c4 | c8 z4 e4- | e4 e4 e4 f4 | %20
w: quo- ni-|am cum pro-|ba- tus fu- e-|rit, quo- ni-|am,|quo- ni-|am cum|* pro- ba- tus|
 e4 d4 c8 | (A6 B2 c4) (A2 B2 | c2 d2 e4) A4 e4- | e4 d8 ^c4 | d8 z8 | z16 | z16 | z16 | d8 c4 B4 | %29
w: fu- e- rit,|cum * * pro\- *|* * * ba- tus|* fu- e-|rit,||||ac- ci- pi-|
 A4 c4 B4 A4 | (B2 A2 A8 ^G4) | A8 z8 | z4 e4 d4 c4 | B4 G4 G4 (A4- | A2 G2) (G8 ^F4) | G8 z8 | %36
w: et co- ro- nam|vi\- * * *|tae,|ac- ci- pi-|et co- ro- nam|* * vi\- *|tae,|
 z16 | z16 | B8 A4 c4 | c4 B4 (c2 d2 e2 c2 | d8) G8 | z4 c8 B4 | c8 A4 A4 | G16 | z8 d8 | A12 B4 | %46
w: ||quam re- pro-|mi- sit De\- * * *|* us|di- li-|gen- ti- bus|se,|quam|re- pro-|
 c4 d4 e8 | d16 | z4 d8 c4 | d8 B4 B4 | A16- | A8 z8 | z4 e8 d4 | e8 c4 B4 | A8 z8 | z4 A8 G4 | %56
w: mi- sit De-|us|di- li-|gen- ti- bus|se,||di- li-|gen- ti- bus|se,|di- li-|
 A8 F4 F4 |[Q:1/4=197] E8[Q:1/4=192] z8 |[Q:1/4=185] e12[Q:1/4=180] d4 | %59
w: gen- ti- bus|se,|di- li-|
[Q:1/4=177] e8[Q:1/4=173] c4[Q:1/4=171] c4 |[Q:1/4=170] B16 |] %61
w: gen- ti- bus|se.|
V:2
 D16 | (E6 D2 E2 F2 G4- | G4) ^F4 G8 | z16 | z16 | z16 |[M:4/2] z4 G4 G8 | E4 G4 A4 G4 | %8
w: Be-|a\- * * * *|* tus vir,||||qui suf-|fert ten- ta- ti-|
 (G2 ^FE F4) G8 | z4 G4 G8 | E4 D4 E4 C4 | (D2 C2 B,2 A,2 B,4 E4) | D8 E8 | z4 G8 G4 | G8 z8 | %15
w: o\- * * * nem,|qui suf-|fert ten- ta- ti-|o\- * * * * *|* nem:|quo- ni-|am,|
 z8 E6 E2 | E4 F8 F4 | F4 E4 F4 G4 | (A4 G2 F2 E8) | z4 A8 A4 | A4 _B4 A4 G4 | F8 A8- | %22
w: quo- ni-|am cum pro-|ba- tus fu- e-|rit, * * *|cum pro-|ba- tus fu- e-|rit, cum|
 A4 G4 F4 E4- | E4 A8 A4 | A8 z8 | z16 | z16 | z8 A8 | G4 F4 E8 | C8 D8- | D4 C4 B,8 | %31
w: * pro- ba- tus|* fu- e-|rit,|||ac-|ci- pi- et|co- ro\-|* nam vi-|
 A,4 A4 G4 G4 | F4 E4 F8 | D4 (D6 CB, A,2 B,2 | C2 D2 E2 C2 D8) | D16 | z16 | z8 z4 G4- | %38
w: tae, ac- ci- pi-|et co- ro-|nam vi\- * * * *||tae,||quam|
 G4 D8 E4 | F4 G4 A8 | G4 G8 E4 | E4 C4 D8 | C4 G8 F4 | G8 E4 E4 | D8 z8 | z4 F4 F4 D4 | E4 F4 G8 | %47
w: * re- pro-|mi- sit De-|us di- li-|gen- ti- bus|se, di- li-|gen- ti- bus|se,|quam re- pro-|mi- sit De-|
 G4 _B8 A4 | =B8 G4 G4 | (F2 G2 A8 ^G4 | A8) z8 | z4 A8 G4 | A8 F4 F4 | E8 z8 | z4 D8 C4 | %55
w: us di- li-|gen- ti- bus|se, * * *||di- li-|gen- ti- bus|se,|di- li-|
 D8 B,4 B,4 | A,8 D8 | G,4 G8 ^F4 | G16- | G16 | G16 |] %61
w: gen- ti- bus|se di-|li- gen- ti-|bus||se.|
V:3
 z16 | z16 | z8 z4 d4 | d8 B4 d4 | (e6 d2 c4) B4 | A8 G8 |[M:4/2][K:treble-8] G16 | c16 | d8 G8- | %9
w: ||qui|suf- fert ten-|ta\- * * ti-|o- nem,|be-|a-|tus vir,|
 G8 z8 | z4 G4 c8 | B4 d4 d4 c4 | (c2 BA B4) c4 e4- | e4 e4 e4 e4- | e4 e4 e4 f4 | e4 d4 c8- | %16
w: |qui suf-|fert ten- ta- ti-|o\- * * * nem: quo\-|* ni- am cum|* pro- ba- tus|fu- e- rit,|
 c8 z8 | z8 c8- | c4 c4 c8 | z16 | z8 c8- | c4 c4 c4 c4- | c4 c4 c4 B4 | c4 d4 e8 | z8 g8 | %25
w: |quo\-|* ni- am,||quo\-|* ni- am cum|* pro- ba- tus|fu- e- rit,|ac-|
 f4 e4 d4 f4 | e4 d4 (e2 d2 d4- | d4 ^c4) d8 | z16 | z4 g8 f4- | f4 e4 d8 | e12 d4- | d4 c4 A4 A4 | %33
w: ci- pi- et co-|ro- nam vi\- * *|* * tae,||ac- ci\-|* pi- et,|ac- ci\-|* pi- et co-|
 B8 B4 (c4- | c2 B2 B2 AG A8) | G8 B8 | A4 c4 c4 B4 | (c2 d2 e2 c2 d8) | G8 z8 | z16 | z8 z4 g4- | %41
w: ro- nam vi\-||tae, quam|re- pro- mi- sit|De\- * * * *|us||di\-|
 g4 ^f4 g8 | e4 e4 d8 | z4 c4 G8- | G4 A4 B4 c4 | d16 | c16 | z4 g8 ^f4 | g8 e4 e4 | d8 z8 | %50
w: * li- gen-|ti- bus se,|quam re\-|* pro- mi- sit|De-|us|di- li-|gen- ti bus|se,|
 z4 f8 e4 | f8 d4 d4 | c8 z8 | z4 c4 f4 d4 | e4 f4 g8 | f8 z8 | z4 c8 B4 | c8 A4 A4 | G4 c8 B4 | %59
w: di- li-|gen- ti- bus|se,|quam re- pro-|mi- sit De-|us|di- li-|gen- ti- bus|se, di- li-|
 c8 e4 e4 | d16 |] %61
w: gen- ti- bus|se.|
V:4
 G,16 | C16 | A,8 G,8- | G,4 G,4 G,8 | E,4 G,4 A,4 G,4 | (G,2 ^F,E, F,4) G,4 D4 |[M:4/2] D8 B,8 | %7
w: Be-|a-|tus vir,|* qui suf-|fert ten- ta- ti-|o\- * * * nem, qui|suf- fert,|
 z16 | z4 D4 D8 | B,4 D4 (E6 D2 | C4) B,4 A,8 | G,16- | G,8 z4 C4- | C4 C4 C8 | z16 | z8 z4 A,4- | %16
w: |qui suf-|fert te- ta\- *|* ti- o-|nem:|* quo\-|* ni- am||cum|
 A,4 A,4 A,4 _B,4 | A,4 G,4 F,8- | F,4 A,8 A,4 | A,16 | z16 | F,12 F,4 | F,4 E,4 F,4 G,4 | A,16 | %24
w: * pro- ba- tus|fu- e- rit,|* quo- ni-|am||cum pro-|ba- tus fu- e-|rit,|
 D8 C4 B,4 | A,8 F,8 | G,12 F,4 | E,8 D,8 | z8 z4 G,4 | F,4 E,4 D,8 | z8 z4 D4- | D4 C8 B,4 | %32
w: ac- ci- pi-|et co-|ro- nam|vi- tae,|ac-|ci- pi- et,|ac\-|* ci- pi-|
 A,8 F,8 | G,12 F,4 | E,8 D,8 | z4 G,8 D,4- | D,4 E,4 F,4 G,4 | A,8 G,8 | z16 | z8 z4 C4- | %40
w: et co-|ro- nam|vi- tae,|quam re\-|* pro- mi- sit|De- us||di\-|
 C4 B,4 C8 | A,4 A,4 G,8 | C,8 D,8 | E,4 (C,6 D,2 E,2 F,2 | G,4) ^F,4 G,8 | z16 | z16 | z16 | z16 | %49
w: * li- gen-|ti- bus se,|di- li-|gen- ti\- * * *|* bus se,|||||
 z16 | z4 D8 C4 | D8 B,4 B,4 | A,8 D8 | A,12 B,4 | C4 D4 E8 | D4 D,8 E,4 | F,8 D,4 D,4 | C,8 D,8 | %58
w: |di- li-|gen- ti- bus|se, quam|re- pro-|mi- sit De-|us di- li-|gen- ti- bus|se, di-|
 E,4 (C,2 D,2 E,2 F,2 G,4) | C,8 C,8 | G,16 |] %61
w: li- gen\- * * * *|ti- bus|se.|

